X: 0
T: Mount Your Baggage
K: G
M: 3/2
L: 1/8
d2|: G3 B d4 G2d2 | edcB g4 G2d2 | G3 Bd4 G2g2 | f3 e d2 G4 :|
ef | gfed g4 G2d2| edcB c2 A4 ef | gfed g4 G2d2 | e3 g d2 B4 ef |
|gfed g4 G2d2 | edcB c2 A4 B2 | G3 B d4 G2 g2 | f3 e d2 G4 || 
